X: 41
T: Steal-partner Dance Song (g)
C: Anon.
%%abc-version 2.0
%%abcx-abcm2ps-target-version 5.9.1 (29 Sep 2008)
%%abc-creator hum2abc beta
%%abcx-conversion-date 2020/08/10 20:56:09
%%abc-copyright Electronic Copyright 2000 David Huron
%%abc-edited-by David Huron
%%abcx-initial-encoding-date August 28, 2000
%%humdrum-veritas 3714126389
%%humdrum-veritas-data 498259952
%%linebreak <none>
%%barnumbers 0
L: 1/8
M: 2/4
Q: 1/4=116
K: E clef=bass
z> B, B,3/ B,/ | 
B,2z2 | 
C2B,3/ C/[M:3/4] | 
G,3z> G, (3G, E, G,[M:2/4] | 
G,2z2 | 
G,2B,3/ G,/[M:3/4] | 
F,2z> G, (3G, F, G,[M:2/4] | 
G,2z2 |]  
C2B,3/ C/[M:3/4] [I:setbarnb 10]| 
G,2z> B, B,3/ B,/[M:2/4] | 
B,2z2 :|]  
Error: new spine information is not the right size
1	2
Required size is: 1
New size would be: 2
Input line of error: 42
Line: *M3/4


